libs/icons/src/lib/svg/edit.svg

<svg viewBox="0 0 16 16" fill="none" xmlns="http://www.w3.org/2000/svg">
    <g clip-path="url(#clip0)">
        <path d="M14.7674 10.051C14.5473 10.051 14.3689 10.2294 14.3689 10.4495V13.9876C14.3681 14.6476 13.8334 15.1824 13.1734 15.183H1.99241C1.33243 15.1824 0.797744 14.6476 0.796966 13.9876V3.6035C0.797744 2.94367 1.33243 2.40883 1.99241 2.40805H5.53051C5.75061 2.40805 5.92899 2.22967 5.92899 2.00957C5.92899 1.78962 5.75061 1.61108 5.53051 1.61108H1.99241C0.892539 1.61233 0.00124526 2.50362 0 3.6035V13.9877C0.00124526 15.0876 0.892539 15.9789 1.99241 15.9801H13.1734C14.2733 15.9789 15.1646 15.0876 15.1659 13.9877V10.4495C15.1659 10.2294 14.9875 10.051 14.7674 10.051Z" fill="#005AA3"/>
        <path d="M15.0079 0.585774C14.3076 -0.114529 13.1722 -0.114529 12.4719 0.585774L5.36272 7.69495C5.314 7.74368 5.27882 7.80407 5.26046 7.87038L4.32558 11.2455C4.28713 11.3839 4.3262 11.5321 4.42769 11.6337C4.52933 11.7352 4.67752 11.7743 4.8159 11.736L8.19103 10.8009C8.25734 10.7826 8.31773 10.7474 8.36645 10.6987L15.4755 3.58934C16.1747 2.88857 16.1747 1.75414 15.4755 1.05337L15.0079 0.585774ZM6.23098 7.95397L12.0493 2.1355L13.9258 4.01195L8.10728 9.83042L6.23098 7.95397ZM5.85616 8.70611L7.3553 10.2054L5.28163 10.7799L5.85616 8.70611ZM14.912 3.02586L14.4894 3.44847L12.6128 1.57186L13.0356 1.14925C13.4246 0.760265 14.0553 0.760265 14.4443 1.14925L14.912 1.61685C15.3004 2.0063 15.3004 2.63656 14.912 3.02586Z" fill="#005AA3"/>
    </g>
    <defs>
        <clipPath id="clip0">
            <rect width="16" height="16" fill="white"/>
        </clipPath>
    </defs>
</svg>

<svg xmlns="http://www.w3.org/2000/svg" viewBox="0 0 16 16">
<path d="M14.8,10.1c-0.2,0-0.4,0.2-0.4,0.4V14c0,0.7-0.5,1.2-1.2,1.2H2c-0.7,0-1.2-0.5-1.2-1.2V3.6
	c0-0.7,0.5-1.2,1.2-1.2h3.5c0.2,0,0.4-0.2,0.4-0.4c0-0.2-0.2-0.4-0.4-0.4H2c-1.1,0-2,0.9-2,2V14c0,1.1,0.9,2,2,2h11.2
	c1.1,0,2-0.9,2-2v-3.5C15.2,10.2,15,10.1,14.8,10.1z"/>
<path d="M15,0.6c-0.7-0.7-1.8-0.7-2.5,0L5.4,7.7c0,0-0.1,0.1-0.1,0.2l-0.9,3.4c0,0.1,0,0.3,0.1,0.4
	c0.1,0.1,0.2,0.1,0.4,0.1l3.4-0.9c0.1,0,0.1-0.1,0.2-0.1l7.1-7.1c0.7-0.7,0.7-1.8,0-2.5L15,0.6z M6.2,8L12,2.1L13.9,4L8.1,9.8L6.2,8
	z M5.9,8.7l1.5,1.5l-2.1,0.6L5.9,8.7z M14.9,3l-0.4,0.4l-1.9-1.9L13,1.1c0.4-0.4,1-0.4,1.4,0l0.5,0.5C15.3,2,15.3,2.6,14.9,3z"/>
</svg>
